exported-svg/link-2.svg

<svg height="24" viewBox="0 0 24 24" width="24" xmlns="http://www.w3.org/2000/svg"><path d="m14.5 8c-.2761424 0-.5-.22385763-.5-.5s.2238576-.5.5-.5h3c1.4586907 0 2.8576372.57946262 3.8890873 1.6109127s1.6109127 2.4303966 1.6109127 3.8890873c0 3.0375661-2.4624339 5.5-5.5 5.5h-3c-.2761424 0-.5-.2238576-.5-.5s.2238576-.5.5-.5h3c2.4852814 0 4.5-2.0147186 4.5-4.5 0-1.1934742-.4741058-2.3380668-1.3180195-3.18198052-.8439137-.8439137-1.9885063-1.31801948-3.1819805-1.31801948zm-6 9c.27614237 0 .5.2238576.5.5s-.22385763.5-.5.5h-3c-1.45869069 0-2.85763722-.5794626-3.8890873-1.6109127s-1.6109127-2.4303966-1.6109127-3.8890873c0-3.03756612 2.46243388-5.5 5.5-5.5h3c.27614237 0 .5.22385763.5.5s-.22385763.5-.5.5h-3c-2.48528137 0-4.5 2.0147186-4.5 4.5 0 1.1934742.47410578 2.3380668 1.31801948 3.1819805.84391371.8439137 1.98850632 1.3180195 3.18198052 1.3180195zm-1-4c-.27614237 0-.5-.2238576-.5-.5s.22385763-.5.5-.5h8c.2761424 0 .5.2238576.5.5s-.2238576.5-.5.5z"/></svg>

<?xml version="1.0" encoding="UTF-8"?>
<svg width="24px" height="24px" viewBox="0 0 24 24" version="1.1" xmlns="http://www.w3.org/2000/svg" xmlns:xlink="http://www.w3.org/1999/xlink">
    <!-- Generator: Sketch 55.2 (78181) - https://sketchapp.com -->
    <title>link-2</title>
    <desc>Created with Sketch.</desc>
    <g id="link-2" stroke="none" stroke-width="1" fill="none" fill-rule="evenodd">
        <path d="M14.5,8 C14.2238576,8 14,7.77614237 14,7.5 C14,7.22385763 14.2238576,7 14.5,7 L17.5,7 C18.9586907,7 20.3576372,7.57946262 21.3890873,8.6109127 C22.4205374,9.64236278 23,11.0413093 23,12.5 C23,15.5375661 20.5375661,18 17.5,18 L14.5,18 C14.2238576,18 14,17.7761424 14,17.5 C14,17.2238576 14.2238576,17 14.5,17 L17.5,17 C19.9852814,17 22,14.9852814 22,12.5 C22,11.3065258 21.5258942,10.1619332 20.6819805,9.31801948 C19.8380668,8.47410578 18.6934742,8 17.5,8 L14.5,8 Z M8.5,17 C8.77614237,17 9,17.2238576 9,17.5 C9,17.7761424 8.77614237,18 8.5,18 L5.5,18 C4.04130931,18 2.64236278,17.4205374 1.6109127,16.3890873 C0.579462622,15.3576372 0,13.9586907 0,12.5 C0,9.46243388 2.46243388,7 5.5,7 L8.5,7 C8.77614237,7 9,7.22385763 9,7.5 C9,7.77614237 8.77614237,8 8.5,8 L5.5,8 C3.01471863,8 1,10.0147186 1,12.5 C1,13.6934742 1.47410578,14.8380668 2.31801948,15.6819805 C3.16193319,16.5258942 4.3065258,17 5.5,17 L8.5,17 Z" id="Shape" fill="#000000" fill-rule="nonzero"></path>
        <path d="M7.5,13 L15.5,13 C15.7761424,13 16,12.7761424 16,12.5 C16,12.2238576 15.7761424,12 15.5,12 L7.5,12 C7.22385763,12 7,12.2238576 7,12.5 C7,12.7761424 7.22385763,13 7.5,13 Z" id="Shape" fill="#000000" fill-rule="nonzero"></path>
    </g>
</svg>
